src/assets/icons/learning.svg

<svg width="44" height="45" viewBox="0 0 44 45" fill="none" xmlns="http://www.w3.org/2000/svg">
<g clip-path="url(#clip0_1464_1316)">
<path d="M2.00012 35.6033L12.0615 27.8268C12.0615 27.8268 16.5643 24.69 20.7705 28.4444L29.9876 30.6335C30.5161 30.7588 30.9751 31.0851 31.2671 31.5432C31.559 32.0013 31.661 32.5551 31.5514 33.0872V33.0872C31.44 33.629 31.1184 34.1045 30.657 34.4096C30.1957 34.7147 29.6322 34.8245 29.0901 34.7149L19.7939 32.8377L29.1144 34.7271C29.3772 34.7813 29.6486 34.7796 29.9107 34.7219C30.1728 34.6643 30.4198 34.552 30.6356 34.3924L38.9172 28.2892C39.2902 28.0071 39.7527 27.8694 40.2194 27.9016C40.686 27.9337 41.1252 28.1336 41.4561 28.4642V28.4642C41.6494 28.6576 41.7996 28.8898 41.8968 29.1454C41.994 29.401 42.036 29.6742 42.02 29.9472C42.0041 30.2202 41.9305 30.4868 41.8042 30.7293C41.6779 30.9719 41.5017 31.1849 41.2872 31.3545L30.9688 39.5022C30.2528 40.0681 29.3668 40.3757 28.4542 40.3754H11.7207L7.98765 43.5" stroke="#1A2578" stroke-width="1.5" stroke-linecap="round" stroke-linejoin="round"/>
<path d="M29.3196 6.42334C30.6248 6.42334 35.8806 7.53687 35.8806 13.0467C35.8806 13.0467 35.6251 16.7737 33.2367 18.4623C33.2367 18.4623 32.0593 19.1301 32.0593 22.6654V25.8189H26.1707V22.5346C26.1707 22.5346 26.5936 19.9044 24.7057 18.298C23.2089 17.0247 22.2824 15.2738 22.4133 12.5965C22.5365 9.98605 24.9248 6.42334 29.3196 6.42334Z" stroke="#BF0830" stroke-width="1.5" stroke-linecap="round" stroke-linejoin="round"/>
<path d="M26.1665 23.5522H32.0597" stroke="#BF0830" stroke-width="1.5" stroke-linecap="round" stroke-linejoin="round"/>
<path d="M32.1769 20.8994H26.1665" stroke="#BF0830" stroke-width="1.5" stroke-linecap="round" stroke-linejoin="round"/>
<path d="M29.7015 9.82617L27.8867 13.2018H30.4986L28.6184 16.3872" stroke="#BF0830" stroke-width="1.5" stroke-linecap="round" stroke-linejoin="round"/>
<path d="M35.1476 7.08672L36.6764 5.58984" stroke="#BF0830" stroke-width="1.5" stroke-linecap="round" stroke-linejoin="round"/>
<path d="M37.6637 13.2339H39.8619" stroke="#BF0830" stroke-width="1.5" stroke-linecap="round" stroke-linejoin="round"/>
<path d="M35.1476 19.3169L36.6764 20.7179" stroke="#BF0830" stroke-width="1.5" stroke-linecap="round" stroke-linejoin="round"/>
<path d="M23.0766 19.3169L21.4854 20.7179" stroke="#BF0830" stroke-width="1.5" stroke-linecap="round" stroke-linejoin="round"/>
<path d="M20.5604 13.2339H18.3638" stroke="#BF0830" stroke-width="1.5" stroke-linecap="round" stroke-linejoin="round"/>
<path d="M23.0766 7.21451L21.4854 5.58984" stroke="#BF0830" stroke-width="1.5" stroke-linecap="round" stroke-linejoin="round"/>
<path d="M29.1127 4.63427L29.172 2.5" stroke="#BF0830" stroke-width="1.5" stroke-linecap="round" stroke-linejoin="round"/>
</g>
<defs>
<clipPath id="clip0_1464_1316">
<rect width="44" height="44" fill="white" transform="translate(0 0.5)"/>
</clipPath>
</defs>
</svg>

<svg width="44" height="45" fill="none" xmlns="http://www.w3.org/2000/svg"><g clip-path="url(#a)" stroke-width="1.5" stroke-linecap="round" stroke-linejoin="round"><path d="m2 35.603 10.061-7.776s4.503-3.137 8.71.617l9.217 2.19a2.089 2.089 0 0 1 1.563 2.453v0a2.09 2.09 0 0 1-2.46 1.628l-9.297-1.877 9.32 1.89a1.91 1.91 0 0 0 1.522-.336l8.281-6.103a1.938 1.938 0 0 1 2.54.175v0a1.938 1.938 0 0 1-.17 2.89L30.97 39.502a4.053 4.053 0 0 1-2.515.873H11.721L7.988 43.5" stroke="#1A2578"/><path d="M29.32 6.423c1.305 0 6.56 1.114 6.56 6.624 0 0-.255 3.727-2.643 5.415 0 0-1.178.668-1.178 4.203v3.154h-5.888v-3.284s.423-2.63-1.465-4.237c-1.497-1.273-2.424-3.024-2.293-5.701.123-2.61 2.512-6.174 6.907-6.174ZM26.166 23.552h5.894M32.177 20.9h-6.01" stroke="#BF0830"/><path d="m29.701 9.826-1.814 3.376h2.612l-1.88 3.185M35.148 7.087l1.528-1.497M37.664 13.234h2.198M35.148 19.317l1.528 1.4M23.077 19.317l-1.592 1.4M20.56 13.234h-2.196M23.077 7.215 21.485 5.59M29.113 4.634l.059-2.134" stroke="#BF0830"/></g><defs><clipPath id="a"><path fill="#fff" transform="translate(0 .5)" d="M0 0h44v44H0z"/></clipPath></defs></svg>
